app/dist/common/images/roquefort-therapeutics-plc.svg

<svg height="18" viewBox="0 0 18 18" width="18" xmlns="http://www.w3.org/2000/svg"><path d="m0 0h18v18h-18z" fill="#f0f3fa"/><path d="m5 9h1l-2 3h-1zm2.98-2h1.02l-2.98 5h-1.02zm.05 5 2.97-5.24v.04l1.51 2.68h-2.01l1.56 2.52h1.06l-1.05-1.68h1.93l-3-5.32-4 7z" fill="#42b7c4"/></svg>

<!-- by TradingView --><svg width="18" height="18" viewBox="0 0 18 18" xmlns="http://www.w3.org/2000/svg"><path fill="#F0F3FA" d="M0 0h18v18H0z"/><path d="M5 9h1l-2 3H3l2-3ZM7.98 7H9l-2.98 5H5l2.98-5ZM8.03 12 11 6.76v.04l1.51 2.68H10.5L12.06 12h1.06l-1.05-1.68H14L11 5l-4 7h1.03Z" fill="#42B7C4"/></svg>
